X:4
T:Battle of Aughrim
S:Bernie Waugh
R:Reel
M:4/4
L:1/8
K:A Dorian
|:AG|\
"Am"E2A2 A2Bd|~e2dB ~c3A|"G"~B2G2 GFGA|"Em"~B2AG E2D2|
"Am"~E2A2 A2Bd|"F"e2dB eaag|"G"eged "Em"BedB|"Am"A6:|
|:(3efg|\
"A"a2e2 e2fg|"F"abag "A"e2fg|"Am"abaf "C"g2ge|"G"dedB G4|
"A"a2e2 e2fg|"F"abag e2ed|"Em"B2e2 ~d2B2|"Am"A6:|



